X: 11031
M: 6/8
L: 1/8
K: D
~d>ed (fd).d | (ed).d (fd).d |\
d>ed fdd | (ed).d (fd)d |
d>ed {ef}g2e | fdB ~B2 !segno!:|\
|: d |\
(AF).A (A2B) | AFA A2B |\
|: (A//B//c/) |\
df/g/a/f/  af/g/a/f/ | bg/a/b/g/ af/g/a/f/ |
df/g/a/f/ af/g/a/g/ | fdB BAF |\
df/g/a/f/ af/g/a/f/ | bb/c'/d'/b/ af/g/a/f/ |\
ge/f/g/e/ af/g/a/g/ | fdB ~B2 !segno!:|


